resources/svg/up-circle-o.svg

<svg width="15" height="15" viewBox="0 0 15 15" fill="none" xmlns="http://www.w3.org/2000/svg">
<path d="M10.1464 8.85356L10.5 9.20711L11.2071 8.5L10.8536 8.14645L10.1464 8.85356ZM7.5 5.5L7.85355 5.14645L7.5 4.79289L7.14645 5.14645L7.5 5.5ZM4.14645 8.14645L3.79289 8.5L4.5 9.20711L4.85355 8.85356L4.14645 8.14645ZM10.8536 8.14645L7.85355 5.14645L7.14645 5.85355L10.1464 8.85356L10.8536 8.14645ZM7.14645 5.14645L4.14645 8.14645L4.85355 8.85356L7.85355 5.85355L7.14645 5.14645ZM1 7.5C1 3.91015 3.91015 0.999999 7.5 1V0C3.35787 -8.9407e-07 8.9407e-07 3.35786 0 7.5H1ZM7.5 14C3.91015 14 0.999999 11.0898 1 7.5H0C-8.9407e-07 11.6421 3.35786 15 7.5 15V14ZM14 7.5C14 11.0899 11.0898 14 7.5 14V15C11.6421 15 15 11.6421 15 7.5H14ZM15 7.5C15 3.35787 11.6421 8.9407e-07 7.5 0V1C11.0899 1 14 3.91015 14 7.5H15Z" fill="black"/>
</svg>

<svg viewBox="0 0 15 15" fill="none" xmlns="http://www.w3.org/2000/svg" fill="currentColor"><path d="M10.146 8.854l.354.353.707-.707-.353-.354-.708.708zM7.5 5.5l.354-.354-.354-.353-.354.353.354.354zM4.146 8.146l-.353.354.707.707.354-.353-.708-.708zm6.708 0l-3-3-.708.708 3 3 .708-.708zm-3.708-3l-3 3 .708.708 3-3-.708-.708zM1 7.5A6.5 6.5 0 017.5 1V0A7.5 7.5 0 000 7.5h1zM7.5 14A6.5 6.5 0 011 7.5H0A7.5 7.5 0 007.5 15v-1zM14 7.5A6.5 6.5 0 017.5 14v1A7.5 7.5 0 0015 7.5h-1zm1 0A7.5 7.5 0 007.5 0v1A6.5 6.5 0 0114 7.5h1z" fill="currentColor"/></svg>
